X:1
T:sg
T:栄光の架橋
T:Arranged for string quartet
T:ゆず Arr. hihi123131 
%%score [ 1 2 3 4 ]
L:1/8
Q:1/4=84
M:4/4
K:F
V:1 treble nm="Violin I"
V:2 treble nm="Violin II"
V:3 alto nm="Viola"
V:4 bass nm="Violoncello"
V:1
!mf!"^(original key: E)" z caf d b3 | [ce]f<gB [A,A]4 | fAdf ecAE | D4 D3/2E3/2F- | [B,F]4 A,4 | %5
 z3 C A2 GF | F4 z F GF/c/- | c4 z2 Ac/d/- | d3 c [Ec]2 c/dA/- | A2 z C A2 GF | F4 z F f2 | %11
 [ce]4 z2 Ac/d/ | d3 c [Ec]2 AG | F4 z2 A>G | F4 z F GF/c/- | c4 z2 Ac/d/- | d<d- d2 [Ec]2 cd | %17
 A2 z z AGGF | F4 z F ff/e/- | e/d/c- c4 Ac | d<d- d2 [Ec]2 AG | F4 z2 FF | ff z F ff z g | %23
 edc c3 Ac/d/- | d2 z d/d/ cc cd/A/- | A4 z F FF/f/- | f2 z2 z2 g2 | edcc- c2 Ac | %28
!<(! dd z2 d c2 d- | d2 z D dd df/e/- | e6 GB | A2 z A a2 gf!<)! | %32
!f! [Bf]2 z f [eg]/g/ z fg/[ca]/- | [ca]2 z A a2 gf | f2 z f ed/c/ dc- | c2 z A [^ca]>[ca] gf | %36
 f2 z d/f/ gg/g/ c2 | aa/g/- ga/f/ z def | [db][db] z d [eb]agf | f8 |!p! z caf d b3 | %41
 [ce]f<gB [A,A]4 | fAdf ecAE |[Q:1/4=71]"^Adagio" D4 D2[Q:1/4=52]"^Lento" E2 | [A,F]4 z4 |] %45
V:2
 z8 | z8 | z8 | z8 | !>![FB]2 !>![FB]2 !>![FA]2 !>![FA]2 | %5
!p!!p! !>![FB]2 !>![FB]2 !>![FA]2 !>![FA]2 | [FA]2 [FA]2 [FA]2 [FA]2 | [Ac]2 [Ac]2 [Ac]2 [Ac]2 | %8
 [Bd]2 [Bd]2 [Gc]2 [Gc]2 | [FA]2 [FA]2 [FA]2 [EG]2 | [DF]2 [DF]2 [Fd]2 [DF]2 | %11
 [CE]2 [Ac]2 [Ac]2 [CE]2 | [DB]2 [B,D]2 [CE]2 [EG]2 | F4 z4 | [FA]2 [FA]2 [FA]2 [FA]2 | %15
 [Ac]2 [Ac]2 [Ac]2 [Ac]2 | [Bd]2 [Bd]2 [Gc]2 [Gc]2 | [FA]2 [FA]2 [FA]2 [EG]2 | %18
 [DF]2 [DF]2 [Fd]2 [DF]2 | [CE]2 [Ac]2 [Ac]2 [CE]2 | [DB]2 [B,D]2 [CE]2 [EG]2 | %21
 [FA]2 [FA]2 [FA]2 !>![EG]2 | [DF]2 [DF]2 [Fd]2 [DF]2 | [CE]2 [Ac]2 [Ac]2 [CE]2 | %24
 [DB]2 [B,D]2 [CE]2 [EG]2 | [FA]2 [FA]2 [FA]2 !>![EG]2 | [DF]2 [DF]2 [Fd]2 [DF]2 | %27
 [CE]2 [Ac]2 [Ac]2 [CE]2 |!<(! [Bd]2 [Bd]2 [Bd]2 [Bd]2 | [=Bd]2 [Bd]2 [Bd]2 [Bd]2 | %30
 [ce]2 [ce]2 [ce]2 [ce]2 | [A^c]2 z2 z4!<)! |!f!!f! [FB]2 [FB]2 [Ec]2 [Ec]2 | %33
 [CF]2 [CA]2 [FA]2 [Fc]2 | [Bd]2 [FB]2 [Ec]2 [Ec]2 | [CF]2 [CA]2 [A^c]2 [a^c']2 | %36
 [bd']2 [fb]2 [ce]2 [Gc]2 | [FA]2 [EA]2 [DF]2 [DA]2 | [FB]2 [Bd]2 [ce]2 [Bc]2 | [Bc]4 [Ac]4 | %40
!p! z8 | z8 | z8 | z8 | F4 z4 |] %45
V:3
!mf! A2 F2 B,2 D2 | C2 F2 Ff [Ee]2 | D,2 D2 C2 A,2 | D,4 D,3/2E,3/2F, | z2 z3 !>!c !>!f2 | %5
!p! !>![F,B,]2 !>![F,B,]2 !>![F,A,]2 !>![F,A,]2 | F,2 A,2 C2 A,2 | C,2 E,2 A,2 E,2 | %8
 F,2 B,2 C2 E2 | F,2 A,2 C2 C2 | D,2 F,2 A,2 D2 | A,2 E,2 A,2 C2 | F,2 B,2 C2 E2 | [A,C]4 z4 | %14
 F,2 A,2 C2 A,2 | C,2 E,2 A,2 E,2 | F,2 B,2 C2 E2 | F,2 A,2 C2 C2 | D,2 F,2 A,2 D2 | %19
 A,2 E,2 A,2 C2 | F,2 B,2 C2 E2 | F,2 A,2 C2 !>!C2 | D,2 F,2 A,2 D2 | A,2 E,2 A,2 C2 | %24
 F,2 B,2 C2 E2 | F,2 A,2 C2 !>!C2 | D,2 F,2 A,2 D2 | A,2 E,2 A,2 C2 |!<(! B,2 D2 F2 D2 | %29
 G,2 =B,2 D,2 G,2 | C2 E2 G2 E2 | A,2 z2 z4!<)! |!f! B,B,F,D CEGC | F,A,CF F,A,CA, | B,B,F,D CEGC | %35
 F,A,CF, ^C2 C2 | B,DF,B, CEG,C | FAAE DFED | F,B,DF G,CEC | F2 C2 F,4 |!p! A2 F2 B,2 D2 | %41
 C2 F2 Ff [Ee]2 | D,2 D2 C2 A,2 | D,4 D,3/2E,3/2F, | A,4 z4 |] %45
V:4
!p! [F,,C,]4 [F,,B,,]4 | [F,,C,]4 [F,,C,]2 [E,,C,]2 | [D,,A,,]4 [E,,A,,]4 | %3
 [F,,B,,]4 [F,,B,,]3/2[G,,C,]3/2[F,,B,,] | [F,,B,,]4 [F,,A,,]3 C, | [F,,B,,]4 [F,,A,,]3 C, | %6
!mp! F,,2 F,,F, F,,3 F,, | A,,2 A,,A, A,,2 A,,2 | B,,2 B,,F,, C,,2 C,2 | F,,2 F,,F, F,,2 E,2 | %10
 D,,2 D,,A,, D,A,, D,,2 | A,,2 A,,2 A,,2 A,,A, | B,,2 B,,F,, C,,2 C,2 | F,,4 z4 | %14
!mp! F,,2 F,,F, F,,3 F,, | A,,2 A,,A, A,,2 A,,2 | B,,2 B,,F,, C,,2 C,2 | F,,2 F,,F, F,,2 E,2 | %18
 D,,2 D,,A,, D,A,, D,,2 | A,2 A,2 A,,2 A,,A, | B,,2 B,,F,, C,,2 C,2 | F,,2 F,,F, F,,2 !>!E,2 | %22
 D,,2 D,,A,, D,A,, D,,2 | A,2 A,2 A,,2 A,,A, | B,,2 B,,F,, C,,2 C,2 | F,,2 F,,F, F,,2 !>!E,2 | %26
 D,,2 D,,A,, D,A,, D,,2 | A,2 A,2 A,,2 A,,A, |!<(! B,,2 B,,B, B,,3 B,, | =B,,2 B,,=B, B,,3 B,, | %30
 C,2 C,C C,3 C, | A,,2 z2 z4!<)! |!f! B,,2 B,,B, C,2 C,C,, | F,,2 F,,F, F,,2 A,2 | %34
 B,,2 B,,B, C,2 C,C,, | F,,2 F,,2 [A,,^C,]2 A,E, | B,,F,D,B, C,G,E,C | F,CG,E, A,,D,E,F, | %38
 D,,F,,B,,D, C,G,,C,E, | F,,8 |!p! [F,,C,]4 [F,,B,,]4 | [F,,C,]4 [F,,C,]2 [E,,C,]2 | %42
 [D,,A,,]4 [E,,A,,]4 | [F,,B,,]4 [F,,B,,]3/2[G,,C,]3/2[F,,B,,] | F,,4 z4 |] %45

